src/categories-icons-sprite/categories/svg-cat-prod-nutritional.svg

<svg width="34" height="34" viewBox="0 0 34 34" fill="none" xmlns="http://www.w3.org/2000/svg">
<path class="p-FDBF00" d="M2.26698 21.18C4.66776 18.252 6.65723 17 17 17C27.3627 17 29.3269 18.2514 31.7116 21.162C33.1021 20.2768 34 18.7275 34 17C34 13.0554 22.8569 12.0195 17 12.0195C11.1431 12.0195 0 13.0554 0 17C0 18.7298 0.893961 20.2728 2.26698 21.18Z" fill="#A1D1FD"/>
<path class="p-FF9100" d="M31.7116 21.162C33.1021 20.2768 34 18.7275 34 17C34 13.0554 22.8569 12.0195 17 12.0195V17C27.3627 17 29.3269 18.2514 31.7116 21.162Z" fill="#4D98CB"/>
<path class="p-FF8597" d="M28.6546 22.9766L28.5352 24.0922C28.2363 26.5226 27.4195 28.9398 26.563 31.43C26.3436 32.0476 26.1247 32.6851 25.9054 33.3226L25.6863 34H17.9965V24.9688H16.0043V34H8.31445L8.09531 33.3226C7.87597 32.6651 7.63718 32.0277 7.43776 31.3902C6.56133 28.9 5.74446 26.4828 5.46549 24.0922L5.32617 22.9766H28.6546Z" fill="#65B3E7"/>
<path class="p-FFCEBF" d="M28.6145 20.805L16.9999 22.877L16.1634 23.0163L5.40527 20.785L5.58477 19.8288C5.90332 18.1753 6.52103 16.6015 7.4972 14.9679C9.33008 11.9199 9.05111 10.0273 8.71264 8.03516L11.4816 6.04297H24.8092L25.2676 8.03516C24.9687 10.0273 24.6302 11.8402 26.5027 14.9679C27.4589 16.5617 28.0966 18.1553 28.4152 19.8288L28.6145 20.805Z" fill="#B9DFFC"/>
<path class="p-FF637B" d="M28.6542 22.9766L28.5348 24.0922C28.2359 26.5226 27.4191 28.9398 26.5626 31.43C26.3432 32.0476 26.1244 32.6851 25.905 33.3226L25.6859 34H17.9961V24.9688H17V22.9766H28.6542Z" fill="#4D98CB"/>
<path class="p-FFB99C" d="M28.6146 20.805L17 22.877V6.04297H24.8092L25.2676 8.03516C24.9688 10.0273 24.6303 11.8402 26.5028 14.9679C27.459 16.5617 28.0966 18.1553 28.4152 19.8288L28.6146 20.805Z" fill="#A1D1FD"/>
<path class="p-FFDA2D" d="M34 17V22.9766C34 26.921 22.8569 27.957 17 27.957C11.1431 27.957 0 26.921 0 22.9766V17C0 20.9445 11.1431 21.9805 17 21.9805C22.8569 21.9805 34 20.9445 34 17Z" fill="#5FBEFF"/>
<path class="p-FF9468" d="M17.9961 16.0039H17V17.9961H17.9961V16.0039Z" fill="#4D98CB"/>
<path class="p-FDBF00" d="M34 17V22.9766C34 26.921 22.8569 27.957 17 27.957V21.9805C22.8569 21.9805 34 20.9445 34 17Z" fill="#58ADE5"/>
<path class="p-FF637B" d="M25.2676 8.03516H17V0H28.1961C26.2238 5.21953 26.0645 5.34564 25.2676 8.03516Z" fill="#4D98CB"/>
<path class="p-FF8597" d="M5.7832 0C7.69584 5.00039 7.9347 5.28594 8.71192 8.03516H25.2669C26.0637 5.34564 26.223 5.21953 28.1953 0H5.7832Z" fill="#65B3E7"/>
<path class="p-FFB99C" d="M17.9961 16.0039H16.0039V17.9961H17.9961V16.0039Z" fill="#65B3E7"/>
</svg>

<svg width="34" height="34" fill="none" xmlns="http://www.w3.org/2000/svg"><path class="p-FDBF00" d="M2.267 21.18C4.667 18.252 6.657 17 17 17c10.363 0 12.327 1.251 14.712 4.162A4.934 4.934 0 0034 17c0-3.945-11.143-4.98-17-4.98-5.857 0-17 1.035-17 4.98 0 1.73.894 3.273 2.267 4.18z" fill="#A1D1FD"/><path class="p-FF9100" d="M31.712 21.162A4.934 4.934 0 0034 17c0-3.945-11.143-4.98-17-4.98V17c10.363 0 12.327 1.251 14.712 4.162z" fill="#4D98CB"/><path class="p-FF8597" d="M28.655 22.977l-.12 1.115c-.299 2.43-1.116 4.848-1.972 7.338-.22.618-.438 1.255-.658 1.893l-.219.677h-7.69v-9.031h-1.992V34h-7.69l-.219-.677c-.219-.658-.458-1.295-.657-1.933-.877-2.49-1.694-4.907-1.973-7.298l-.139-1.115h23.329z" fill="#65B3E7"/><path class="p-FFCEBF" d="M28.614 20.805L17 22.877l-.837.14-10.758-2.232.18-.956c.318-1.654.936-3.227 1.912-4.861 1.833-3.048 1.554-4.94 1.216-6.933l2.769-1.992h13.327l.459 1.992c-.3 1.992-.638 3.805 1.235 6.933.956 1.594 1.594 3.187 1.912 4.86l.2.977z" fill="#B9DFFC"/><path class="p-FF637B" d="M28.654 22.977l-.12 1.115c-.298 2.43-1.115 4.848-1.971 7.338-.22.618-.439 1.255-.658 1.893l-.22.677h-7.689v-9.031H17v-1.992h11.654z" fill="#4D98CB"/><path class="p-FFB99C" d="M28.615 20.805L17 22.877V6.043h7.81l.458 1.992c-.3 1.992-.638 3.805 1.235 6.933.956 1.594 1.594 3.187 1.912 4.86l.2.977z" fill="#A1D1FD"/><path class="p-FFDA2D" d="M34 17v5.977c0 3.944-11.143 4.98-17 4.98-5.857 0-17-1.036-17-4.98V17c0 3.945 11.143 4.98 17 4.98 5.857 0 17-1.035 17-4.98z" fill="#5FBEFF"/><path class="p-FF9468" d="M17.996 16.004H17v1.992h.996v-1.992z" fill="#4D98CB"/><path class="p-FDBF00" d="M34 17v5.977c0 3.944-11.143 4.98-17 4.98V21.98c5.857 0 17-1.035 17-4.98z" fill="#58ADE5"/><path class="p-FF637B" d="M25.268 8.035H17V0h11.196c-1.972 5.22-2.132 5.346-2.928 8.035z" fill="#4D98CB"/><path class="p-FF8597" d="M5.783 0c1.913 5 2.152 5.286 2.929 8.035h16.555c.797-2.69.956-2.815 2.928-8.035H5.783z" fill="#65B3E7"/><path class="p-FFB99C" d="M17.996 16.004h-1.992v1.992h1.992v-1.992z" fill="#65B3E7"/></svg>
